calcurve_2.cal
CAL    

DESCRIPTOR "Argyll Device Calibration State"
ORIGINATOR "vcgt"
CREATED "Tue Mar 11 17:33:59 2025"
DEVICE_CLASS "DISPLAY"
COLOR_REP "RGB"

NUMBER_OF_FIELDS 4
BEGIN_DATA_FORMAT
RGB_I RGB_R RGB_G RGB_B
END_DATA_FORMAT

NUMBER_OF_SETS 256
BEGIN_DATA
0.02745100 0.02745100 0.02745100 0.02745100
0.02745100 0.02745100 0.02745100 0.02745100
0.02745100 0.02745100 0.02745100 0.02745100
0.02745100 0.02745100 0.02745100 0.02745100
0.02745100 0.02745100 0.02745100 0.02745100
0.02745100 0.02745100 0.02745100 0.02745100
0.02745100 0.02745100 0.02745100 0.02745100
0.02745100 0.02745100 0.02745100 0.02745100
0.03137250 0.03137250 0.03137250 0.03137250
0.03529410 0.03529410 0.03529410 0.03529410
0.03921570 0.03921570 0.03921570 0.03921570
0.04313730 0.04313730 0.04313730 0.04313730
0.04705880 0.04705880 0.04705880 0.04705880
0.05098040 0.05098040 0.05098040 0.05098040
0.05490200 0.05490200 0.05490200 0.05490200
0.05882350 0.05882350 0.05882350 0.05882350
0.06274510 0.06274510 0.06274510 0.06274510
0.06666670 0.06666670 0.06666670 0.06666670
0.07058820 0.07058820 0.07058820 0.07058820
0.07450980 0.07450980 0.07450980 0.07450980
0.07843140 0.07843140 0.07843140 0.07843140
0.08235290 0.08235290 0.08235290 0.08235290
0.08627450 0.08627450 0.08627450 0.08627450
0.09019610 0.09019610 0.09019610 0.09019610
0.09411760 0.09411760 0.09411760 0.09411760
0.09803920 0.09803920 0.09803920 0.09803920
0.10196080 0.10196100 0.10196100 0.10196100
0.10588240 0.10588200 0.10588200 0.10588200
0.10980390 0.10980400 0.10980400 0.10980400
0.11372550 0.11372500 0.11372500 0.11372500
0.11764710 0.11764700 0.11764700 0.11764700
0.12156860 0.12156900 0.12156900 0.12156900
0.12549020 0.12549000 0.12549000 0.12549000
0.12941180 0.12941200 0.12941200 0.12941200
0.13333330 0.13333300 0.13333300 0.13333300
0.13725490 0.13725500 0.13725500 0.13725500
0.14117650 0.14117600 0.14117600 0.14117600
0.14509800 0.14509800 0.14509800 0.14509800
0.14901960 0.14902000 0.14902000 0.14902000
0.15294120 0.15294100 0.15294100 0.15294100
0.15686270 0.15686300 0.15686300 0.15686300
0.16078430 0.16078400 0.16078400 0.16078400
0.16470590 0.16470600 0.16470600 0.16470600
0.16862750 0.16862700 0.16862700 0.16862700
0.17254900 0.17254900 0.17254900 0.17254900
0.17647060 0.17647100 0.17647100 0.17647100
0.18039220 0.18039200 0.18039200 0.18039200
0.18431370 0.18431400 0.18431400 0.18431400
0.18823530 0.18823500 0.18823500 0.18823500
0.19215690 0.19215700 0.19215700 0.19215700
0.19607840 0.19607800 0.19607800 0.19607800
0.20000000 0.20000000 0.20000000 0.20000000
0.20392160 0.20392200 0.20392200 0.20392200
0.20784310 0.20784300 0.20784300 0.20784300
0.21176470 0.21176500 0.21176500 0.21176500
0.21568630 0.21568600 0.21568600 0.21568600
0.21960780 0.21960800 0.21960800 0.21960800
0.22352940 0.22352900 0.22352900 0.22352900
0.22745100 0.22745100 0.22745100 0.22745100
0.23137250 0.23137300 0.23137300 0.23137300
0.23529410 0.23529400 0.23529400 0.23529400
0.23921570 0.23921600 0.23921600 0.23921600
0.24313730 0.24313700 0.24313700 0.24313700
0.24705880 0.24705900 0.24705900 0.24705900
0.25098040 0.25098000 0.25098000 0.25098000
0.25490200 0.25490200 0.25490200 0.25490200
0.25882350 0.25882400 0.25882400 0.25882400
0.26274510 0.26274500 0.26274500 0.26274500
0.26666670 0.26666700 0.26666700 0.26666700
0.27058820 0.27058800 0.27058800 0.27058800
0.27450980 0.27451000 0.27451000 0.27451000
0.27843140 0.27843100 0.27843100 0.27843100
0.28235290 0.28235300 0.28235300 0.28235300
0.28627450 0.28627500 0.28627500 0.28627500
0.29019610 0.29019600 0.29019600 0.29019600
0.29411760 0.29411800 0.29411800 0.29411800
0.29803920 0.29803900 0.29803900 0.29803900
0.30196080 0.30196100 0.30196100 0.30196100
0.30588240 0.30588200 0.30588200 0.30588200
0.30980390 0.30980400 0.30980400 0.30980400
0.31372550 0.31372500 0.31372500 0.31372500
0.31764710 0.31764700 0.31764700 0.31764700
0.32156860 0.32156900 0.32156900 0.32156900
0.32549020 0.32549000 0.32549000 0.32549000
0.32941180 0.32941200 0.32941200 0.32941200
0.33333330 0.33333300 0.33333300 0.33333300
0.33725490 0.33725500 0.33725500 0.33725500
0.34117650 0.34117600 0.34117600 0.34117600
0.34509800 0.34509800 0.34509800 0.34509800
0.34901960 0.34902000 0.34902000 0.34902000
0.35294120 0.35294100 0.35294100 0.35294100
0.35686270 0.35686300 0.35686300 0.35686300
0.36078430 0.36078400 0.36078400 0.36078400
0.36470590 0.36470600 0.36470600 0.36470600
0.36862750 0.36862700 0.36862700 0.36862700
0.37254900 0.37254900 0.37254900 0.37254900
0.37647060 0.37647100 0.37647100 0.37647100
0.38039220 0.38039200 0.38039200 0.38039200
0.38431370 0.38431400 0.38431400 0.38431400
0.38823530 0.38823500 0.38823500 0.38823500
0.39215690 0.39215700 0.39215700 0.39215700
0.39607840 0.39607800 0.39607800 0.39607800
0.40000000 0.40000000 0.40000000 0.40000000
0.40392160 0.40392200 0.40392200 0.40392200
0.40784310 0.40784300 0.40784300 0.40784300
0.41176470 0.41176500 0.41176500 0.41176500
0.41568630 0.41568600 0.41568600 0.41568600
0.41960780 0.41960800 0.41960800 0.41960800
0.42352940 0.42352900 0.42352900 0.42352900
0.42745100 0.42745100 0.42745100 0.42745100
0.43137250 0.43137300 0.43137300 0.43137300
0.43529410 0.43529400 0.43529400 0.43529400
0.43921570 0.43921600 0.43921600 0.43921600
0.44313730 0.44313700 0.44313700 0.44313700
0.44705880 0.44705900 0.44705900 0.44705900
0.45098040 0.45098000 0.45098000 0.45098000
0.45490200 0.45490200 0.45490200 0.45490200
0.45882350 0.45882400 0.45882400 0.45882400
0.46274510 0.46274500 0.46274500 0.46274500
0.46666670 0.46666700 0.46666700 0.46666700
0.47058820 0.47058800 0.47058800 0.47058800
0.47450980 0.47451000 0.47451000 0.47451000
0.47843140 0.47843100 0.47843100 0.47843100
0.48235290 0.48235300 0.48235300 0.48235300
0.48627450 0.48627500 0.48627500 0.48627500
0.49019610 0.49019600 0.49019600 0.49019600
0.49411760 0.49411800 0.49411800 0.49411800
0.49803920 0.49803900 0.49803900 0.49803900
0.50196080 0.50196100 0.50196100 0.50196100
0.50588240 0.50588200 0.50588200 0.50588200
0.50980390 0.50980400 0.50980400 0.50980400
0.51372550 0.51372500 0.51372500 0.51372500
0.51764710 0.51764700 0.51764700 0.51764700
0.52156860 0.52156900 0.52156900 0.52156900
0.52549020 0.52549000 0.52549000 0.52549000
0.52941180 0.52941200 0.52941200 0.52941200
0.53333330 0.53333300 0.53333300 0.53333300
0.53725490 0.53725500 0.53725500 0.53725500
0.54117650 0.54117600 0.54117600 0.54117600
0.54509800 0.54509800 0.54509800 0.54509800
0.54901960 0.54902000 0.54902000 0.54902000
0.55294120 0.55294100 0.55294100 0.55294100
0.55686270 0.55686300 0.55686300 0.55686300
0.56078430 0.56078400 0.56078400 0.56078400
0.56470590 0.56470600 0.56470600 0.56470600
0.56862750 0.56862700 0.56862700 0.56862700
0.57254900 0.57254900 0.57254900 0.57254900
0.57647060 0.57647100 0.57647100 0.57647100
0.58039220 0.58039200 0.58039200 0.58039200
0.58431370 0.58431400 0.58431400 0.58431400
0.58823530 0.58823500 0.58823500 0.58823500
0.59215690 0.59215700 0.59215700 0.59215700
0.59607840 0.59607800 0.59607800 0.59607800
0.60000000 0.60000000 0.60000000 0.60000000
0.60392160 0.60392200 0.60392200 0.60392200
0.60784310 0.60784300 0.60784300 0.60784300
0.61176470 0.61176500 0.61176500 0.61176500
0.61568630 0.61568600 0.61568600 0.61568600
0.61960780 0.61960800 0.61960800 0.61960800
0.62352940 0.62352900 0.62352900 0.62352900
0.62745100 0.62745100 0.62745100 0.62745100
0.63137250 0.63137300 0.63137300 0.63137300
0.63529410 0.63529400 0.63529400 0.63529400
0.63921570 0.63921600 0.63921600 0.63921600
0.64313730 0.64313700 0.64313700 0.64313700
0.64705880 0.64705900 0.64705900 0.64705900
0.65098040 0.65098000 0.65098000 0.65098000
0.65490200 0.65490200 0.65490200 0.65490200
0.65882350 0.65882400 0.65882400 0.65882400
0.66274510 0.66274500 0.66274500 0.66274500
0.66666670 0.66666700 0.66666700 0.66666700
0.67058820 0.67058800 0.67058800 0.67058800
0.67450980 0.67451000 0.67451000 0.67451000
0.67843140 0.67843100 0.67843100 0.67843100
0.68235290 0.68235300 0.68235300 0.68235300
0.68627450 0.68627500 0.68627500 0.68627500
0.69019610 0.69019600 0.69019600 0.69019600
0.69411760 0.69411800 0.69411800 0.69411800
0.69803920 0.69803900 0.69803900 0.69803900
0.70196080 0.70196100 0.70196100 0.70196100
0.70588240 0.70588200 0.70588200 0.70588200
0.70980390 0.70980400 0.70980400 0.70980400
0.71372550 0.71372500 0.71372500 0.71372500
0.71764710 0.71764700 0.71764700 0.71764700
0.72156860 0.72156900 0.72156900 0.72156900
0.72549020 0.72549000 0.72549000 0.72549000
0.72941180 0.72941200 0.72941200 0.72941200
0.73333330 0.73333300 0.73333300 0.73333300
0.73725490 0.73725500 0.73725500 0.73725500
0.74117650 0.74117600 0.74117600 0.74117600
0.74509800 0.74509800 0.74509800 0.74509800
0.74901960 0.74902000 0.74902000 0.74902000
0.75294120 0.75294100 0.75294100 0.75294100
0.75686270 0.75686300 0.75686300 0.75686300
0.76078430 0.76078400 0.76078400 0.76078400
0.76470590 0.76470600 0.76470600 0.76470600
0.76862750 0.76862700 0.76862700 0.76862700
0.77254900 0.77254900 0.77254900 0.77254900
0.77647060 0.77647100 0.77647100 0.77647100
0.78039220 0.78039200 0.78039200 0.78039200
0.78431370 0.78431400 0.78431400 0.78431400
0.78823530 0.78823500 0.78823500 0.78823500
0.79215690 0.79215700 0.79215700 0.79215700
0.79607840 0.79607800 0.79607800 0.79607800
0.80000000 0.80000000 0.80000000 0.80000000
0.80392160 0.80392200 0.80392200 0.80392200
0.80784310 0.80784300 0.80784300 0.80784300
0.81176470 0.81176500 0.81176500 0.81176500
0.81568630 0.81568600 0.81568600 0.81568600
0.81960780 0.81960800 0.81960800 0.81960800
0.82352940 0.82352900 0.82352900 0.82352900
0.82745100 0.82745100 0.82745100 0.82745100
0.83137250 0.83137300 0.83137300 0.83137300
0.83529410 0.83529400 0.83529400 0.83529400
0.83921570 0.83921600 0.83921600 0.83921600
0.84313730 0.84313700 0.84313700 0.84313700
0.84705880 0.84705900 0.84705900 0.84705900
0.85098040 0.85098000 0.85098000 0.85098000
0.85490200 0.85490200 0.85490200 0.85490200
0.85882350 0.85882400 0.85882400 0.85882400
0.86274510 0.86274500 0.86274500 0.86274500
0.86666670 0.86666700 0.86666700 0.86666700
0.87058820 0.87058800 0.87058800 0.87058800
0.87450980 0.87451000 0.87451000 0.87451000
0.87843140 0.87843100 0.87843100 0.87843100
0.88235290 0.88235300 0.88235300 0.88235300
0.88627450 0.88627500 0.88627500 0.88627500
0.89019610 0.89019600 0.89019600 0.89019600
0.89411760 0.89411800 0.89411800 0.89411800
0.89803920 0.89803900 0.89803900 0.89803900
0.90196080 0.90196100 0.90196100 0.90196100
0.90588240 0.90588200 0.90588200 0.90588200
0.90980390 0.90980400 0.90980400 0.90980400
0.91372550 0.91372500 0.91372500 0.91372500
0.91764710 0.91764700 0.91764700 0.91764700
0.92156860 0.92156900 0.92156900 0.92156900
0.92549020 0.92549000 0.92549000 0.92549000
0.92941180 0.92941200 0.92941200 0.92941200
0.93333330 0.93333300 0.93333300 0.93333300
0.93725490 0.93725500 0.93725500 0.93725500
0.94117650 0.94117600 0.94117600 0.94117600
0.94509800 0.94509800 0.94509800 0.94509800
0.94901960 0.94902000 0.94902000 0.94902000
0.95294120 0.95294100 0.95294100 0.95294100
0.95686270 0.95686300 0.95686300 0.95686300
0.96078430 0.96078400 0.96078400 0.96078400
0.96470590 0.96470600 0.96470600 0.96470600
0.96862750 0.96862700 0.96862700 0.96862700
0.97254900 0.97254900 0.97254900 0.97254900
0.97647060 0.97647100 0.97647100 0.97647100
0.98039220 0.98039200 0.98039200 0.98039200
0.98431370 0.98431400 0.98431400 0.98431400
0.98823530 0.98823500 0.98823500 0.98823500
0.99215690 0.99215700 0.99215700 0.99215700
0.99607840 0.99607800 0.99607800 0.99607800
1.00000000 1.00000000 1.00000000 1.00000000
END_DATA
